icons/evolbuntu-dark-fallback/apps/16/nepomuk.svg

<?xml version="1.0" encoding="UTF-8" standalone="no"?>
<!-- Created with Inkscape (http://www.inkscape.org/) -->

<svg
   xmlns:dc="http://purl.org/dc/elements/1.1/"
   xmlns:cc="http://creativecommons.org/ns#"
   xmlns:rdf="http://www.w3.org/1999/02/22-rdf-syntax-ns#"
   xmlns:svg="http://www.w3.org/2000/svg"
   xmlns="http://www.w3.org/2000/svg"
   xmlns:sodipodi="http://sodipodi.sourceforge.net/DTD/sodipodi-0.dtd"
   xmlns:inkscape="http://www.inkscape.org/namespaces/inkscape"
   width="16"
   height="16"
   id="svg27665"
   version="1.1"
   inkscape:version="0.48.3.1 r9886"
   sodipodi:docname="nepomuk.svg">
  <defs
     id="defs27667" />
  <sodipodi:namedview
     id="base"
     pagecolor="#ffffff"
     bordercolor="#666666"
     borderopacity="1.0"
     inkscape:pageopacity="0.0"
     inkscape:pageshadow="2"
     inkscape:zoom="31.678384"
     inkscape:cx="4.172624"
     inkscape:cy="7.0750126"
     inkscape:document-units="px"
     inkscape:current-layer="22"
     showgrid="true"
     inkscape:window-width="1920"
     inkscape:window-height="1033"
     inkscape:window-x="-10"
     inkscape:window-y="25"
     inkscape:window-maximized="1"
     inkscape:snap-bbox="true"
     inkscape:bbox-paths="true"
     inkscape:bbox-nodes="true"
     inkscape:snap-bbox-edge-midpoints="true"
     inkscape:snap-bbox-midpoints="true"
     inkscape:object-paths="true"
     inkscape:snap-intersection-paths="true"
     inkscape:object-nodes="true"
     inkscape:snap-smooth-nodes="true"
     inkscape:snap-midpoints="true"
     inkscape:snap-object-midpoints="true"
     inkscape:snap-center="true"
     inkscape:snap-global="true"
     showguides="true"
     inkscape:guide-bbox="true"
     fit-margin-top="0"
     fit-margin-left="0"
     fit-margin-right="0"
     fit-margin-bottom="0"
     inkscape:showpageshadow="false"
     inkscape:snap-page="true">
    <inkscape:grid
       type="xygrid"
       id="grid3126"
       empspacing="5"
       visible="true"
       enabled="true"
       snapvisiblegridlinesonly="true"
       originx="1.9507231e-05px"
       originy="25.00001px" />
  </sodipodi:namedview>
  <metadata
     id="metadata27670">
    <rdf:RDF>
      <cc:Work
         rdf:about="">
        <dc:format>image/svg+xml</dc:format>
        <dc:type
           rdf:resource="http://purl.org/dc/dcmitype/StillImage" />
        <dc:title />
      </cc:Work>
    </rdf:RDF>
  </metadata>
  <g
     inkscape:label="Camada 1"
     inkscape:groupmode="layer"
     id="layer1"
     transform="translate(3364.4172,-1859.5163)">
    <g
       transform="matrix(0.03606018,0,0,0.03606018,-3237.7135,1855.2242)"
       id="22"
       inkscape:label="#g10690">
      <path
         sodipodi:nodetypes="sssccccsssccssccsssccccssssssssssss"
         inkscape:connector-curvature="0"
         id="path2985"
         d="m -3402.7478,146.75745 c -45.9469,0 -83.1943,37.24734 -83.1943,83.19426 0,45.94692 37.2474,83.19426 83.1943,83.19426 7.3706,0 13.9935,-1.66727 20.7985,-3.46643 l 71.0618,71.06177 c -4.216,9.96775 -6.6666,20.85968 -7.7995,32.06445 l -39.8639,15.59892 c -12.3075,-19.30719 -33.4692,-32.06445 -58.0626,-32.06445 -38.2891,0 -69.3286,31.03945 -69.3286,69.32855 0,38.2891 31.0395,69.32855 69.3286,69.32855 31.9341,0 58.6818,-21.74939 66.7287,-51.12981 l 38.9973,-15.59892 c 17.0027,39.44201 56.581,66.72873 102.2596,66.72873 61.2626,0 110.9257,-49.66312 110.9257,-110.92568 0,-45.67864 -27.2867,-85.25687 -66.7287,-102.25961 l 15.5989,-38.99731 c 29.3804,-8.04684 51.1298,-34.79467 51.1298,-66.72873 0,-38.2891 -31.0394,-69.32855 -69.3285,-69.32855 -38.2892,0 -69.3286,31.03945 -69.3286,69.32855 0,24.59339 12.7573,45.75515 32.0645,58.06266 l -15.599,39.86392 c -11.2047,1.13289 -22.0967,3.58345 -32.0644,7.79946 l -71.0618,-71.06177 c 1.7992,-6.80506 3.4664,-13.42791 3.4664,-20.79856 0,-45.94692 -37.2473,-83.19426 -83.1942,-83.19426 z m 0,55.46284 c 15.3156,0 27.7314,12.4158 27.7314,27.73142 0,15.31562 -12.4158,27.73142 -27.7314,27.73142 -15.3156,0 -27.7314,-12.4158 -27.7314,-27.73142 0,-15.31562 12.4158,-27.73142 27.7314,-27.73142 z m 194.1199,166.38852 c 30.6312,0 55.4629,24.83166 55.4629,55.46284 0,30.63118 -24.8317,55.46284 -55.4629,55.46284 -30.6312,0 -55.4628,-24.83166 -55.4628,-55.46284 0,-30.63118 24.8316,-55.46284 55.4628,-55.46284 z"
         style="color:#000000;fill:#434a55;fill-opacity:0.6745098;fill-rule:nonzero;stroke:none;stroke-width:2.5;marker:none;visibility:visible;display:inline;overflow:visible;enable-background:accumulate" />
      <path
         style="font-size:medium;font-style:normal;font-variant:normal;font-weight:normal;font-stretch:normal;text-indent:0;text-align:start;text-decoration:none;line-height:normal;letter-spacing:normal;word-spacing:normal;text-transform:none;direction:ltr;block-progression:tb;writing-mode:lr-tb;text-anchor:start;baseline-shift:baseline;color:#000000;fill:#d1d4d6;fill-opacity:0.74329164;fill-rule:nonzero;stroke:none;stroke-width:2;marker:none;visibility:visible;display:inline;overflow:visible;enable-background:accumulate;font-family:Sans;-inkscape-font-specification:Sans"
         d="m 4,-0.1875 c -2.3053814,0 -4.1875,1.8821175 -4.1875,4.1875 0,2.3053825 1.8821186,4.1875 4.1875,4.1875 0.1323986,0 0.1963682,-0.048683 0.3125,-0.0625 L 5.90625,9.71875 5.8125,9.78125 C 5.1683498,9.2283522 4.4111145,8.8125 3.5,8.8125 c -2.0292398,0 -3.6875,1.65826 -3.6875,3.6875 0,2.02924 1.6582602,3.6875 3.6875,3.6875 1.3888146,0 2.4630394,-0.858171 3.09375,-2 L 7,14.03125 c 0.9576466,1.248112 2.322722,2.15625 4,2.15625 2.857668,0 5.1875,-2.329833 5.1875,-5.1875 0,-1.6772798 -0.908139,-3.0423538 -2.15625,-4 L 14.1875,6.59375 c 1.141831,-0.630707 2,-1.7049344 2,-3.09375 0,-2.0292398 -1.65826,-3.6875 -3.6875,-3.6875 -2.029243,0 -3.6875,1.6582602 -3.6875,3.6875 0,0.9111142 0.4158501,1.6683498 0.96875,2.3125 L 9.71875,5.90625 8.125,4.3125 C 8.1388183,4.1963664 8.1875,4.1323982 8.1875,4 8.1875,1.6946175 6.3053814,-0.1875 4,-0.1875 z M 4,1 C 5.6568535,1 7,2.3431458 7,4 7,4.265787 6.9398795,4.5046083 6.875,4.75 L 9.4375,7.3125 C 9.7969371,7.1604699 10.189707,7.0721022 10.59375,7.03125 l 0.5625,-1.4375 C 10.460029,5.149939 10,4.3868421 10,3.5 10,2.1192882 11.119285,1 12.5,1 13.880712,1 15,2.1192882 15,3.5 15,4.651548 14.215713,5.6160795 13.15625,5.90625 L 12.59375,7.3125 C 14.016036,7.9256219 15,9.35282 15,11 c 0,2.209139 -1.79086,4 -4,4 -1.6471785,0 -3.0743796,-0.983964 -3.6875,-2.40625 l -1.40625,0.5625 C 5.6160773,14.215713 4.6515494,15 3.5,15 2.1192882,15 1,13.880712 1,12.5 1,11.119288 2.1192882,10 3.5,10 c 0.8868424,0 1.6499393,0.460029 2.09375,1.15625 l 1.4375,-0.5625 C 7.0721026,10.189704 7.1604703,9.7969389 7.3125,9.4375 L 4.75,6.875 C 4.5046105,6.939878 4.2657852,7 4,7 2.3431465,7 1,5.6568542 1,4 1,2.3431458 2.3431465,1 4,1 z M 4,3 C 3.4477167,3 3,3.447716 3,4 3,4.552284 3.4477167,5 4,5 4.5522833,5 5,4.552284 5,4 5,3.447716 4.5522833,3 4,3 z m 7,6 c -1.1045666,0 -2,0.8954341 -2,2 0,1.104566 0.8954334,2 2,2 1.104567,0 2,-0.895434 2,-2 0,-1.1045659 -0.895433,-2 -2,-2 z"
         transform="matrix(27.73142,0,0,27.73142,-3513.6735,119.02603)"
         id="path3764"
         inkscape:connector-curvature="0"
         sodipodi:nodetypes="ssscccsssccssccssscccssssccccsssccssccsssccccsssssssssssss" />
    </g>
  </g>
</svg>

<?xml version="1.0" encoding="UTF-8" standalone="no"?>
<!-- Created with Inkscape (http://www.inkscape.org/) -->

<svg
   xmlns:dc="http://purl.org/dc/elements/1.1/"
   xmlns:cc="http://creativecommons.org/ns#"
   xmlns:rdf="http://www.w3.org/1999/02/22-rdf-syntax-ns#"
   xmlns:svg="http://www.w3.org/2000/svg"
   xmlns="http://www.w3.org/2000/svg"
   xmlns:sodipodi="http://sodipodi.sourceforge.net/DTD/sodipodi-0.dtd"
   xmlns:inkscape="http://www.inkscape.org/namespaces/inkscape"
   width="16"
   height="16"
   id="svg27665"
   version="1.1"
   inkscape:version="0.48.4 r9939"
   sodipodi:docname="nepomuk.svg">
  <defs
     id="defs27667" />
  <sodipodi:namedview
     id="base"
     pagecolor="#ffffff"
     bordercolor="#666666"
     borderopacity="1.0"
     inkscape:pageopacity="0.0"
     inkscape:pageshadow="2"
     inkscape:zoom="31.678384"
     inkscape:cx="4.172624"
     inkscape:cy="7.0750126"
     inkscape:document-units="px"
     inkscape:current-layer="layer1"
     showgrid="true"
     inkscape:window-width="1920"
     inkscape:window-height="1016"
     inkscape:window-x="-5"
     inkscape:window-y="27"
     inkscape:window-maximized="1"
     inkscape:snap-bbox="true"
     inkscape:bbox-paths="true"
     inkscape:bbox-nodes="true"
     inkscape:snap-bbox-edge-midpoints="true"
     inkscape:snap-bbox-midpoints="true"
     inkscape:object-paths="true"
     inkscape:snap-intersection-paths="true"
     inkscape:object-nodes="true"
     inkscape:snap-smooth-nodes="true"
     inkscape:snap-midpoints="true"
     inkscape:snap-object-midpoints="true"
     inkscape:snap-center="true"
     inkscape:snap-global="true"
     showguides="true"
     inkscape:guide-bbox="true"
     fit-margin-top="0"
     fit-margin-left="0"
     fit-margin-right="0"
     fit-margin-bottom="0"
     inkscape:showpageshadow="false"
     inkscape:snap-page="true">
    <inkscape:grid
       type="xygrid"
       id="grid3126"
       empspacing="5"
       visible="true"
       enabled="true"
       snapvisiblegridlinesonly="true"
       originx="1.9507231e-05px"
       originy="25.00001px" />
  </sodipodi:namedview>
  <metadata
     id="metadata27670">
    <rdf:RDF>
      <cc:Work
         rdf:about="">
        <dc:format>image/svg+xml</dc:format>
        <dc:type
           rdf:resource="http://purl.org/dc/dcmitype/StillImage" />
        <dc:title />
      </cc:Work>
    </rdf:RDF>
  </metadata>
  <g
     inkscape:label="Camada 1"
     inkscape:groupmode="layer"
     id="layer1"
     transform="translate(3364.4172,-1859.5163)">
    <path
       style="color:#000000;fill:#434a55;fill-opacity:0.6745098;fill-rule:nonzero;stroke:none;stroke-width:2.5;marker:none;visibility:visible;display:inline;overflow:visible;enable-background:accumulate"
       d="M 4 1 C 2.3431 1 1 2.3431 1 4 C 1 5.6569 2.3431 7 4 7 C 4.2658 7 4.5046 6.94 4.75 6.875 L 7.3125 9.4375 C 7.1605 9.7969 7.07215 10.18965 7.03125 10.59375 L 5.59375 11.15625 C 5.14985 10.46005 4.3868 10 3.5 10 C 2.1193 10 1 11.1193 1 12.5 C 1 13.8807 2.1193 15 3.5 15 C 4.6516 15 5.61605 14.21575 5.90625 13.15625 L 7.3125 12.59375 C 7.9256 14.01595 9.3528 15 11 15 C 13.2091 15 15 13.2091 15 11 C 15 9.3528 14.01595 7.9256 12.59375 7.3125 L 13.15625 5.90625 C 14.21565 5.61605 15 4.6515 15 3.5 C 15 2.1193 13.8807 1 12.5 1 C 11.1193 1 10 2.1193 10 3.5 C 10 4.3868 10.45995 5.14985 11.15625 5.59375 L 10.59375 7.03125 C 10.18975 7.07225 9.7969 7.1605 9.4375 7.3125 L 6.875 4.75 C 6.94 4.5046 7 4.2658 7 4 C 7 2.3431 5.6569 1 4 1 z M 4 3 C 4.5523 3 5 3.4477 5 4 C 5 4.5523 4.5523 5 4 5 C 3.4477 5 3 4.5523 3 4 C 3 3.4477 3.4477 3 4 3 z M 11 9 C 12.1046 9 13 9.8954 13 11 C 13 12.1046 12.1046 13 11 13 C 9.8954 13 9 12.1046 9 11 C 9 9.8954 9.8954 9 11 9 z "
       transform="translate(-3364.4172,1859.5163)"
       id="path2985" />
    <path
       style="font-size:medium;font-style:normal;font-variant:normal;font-weight:normal;font-stretch:normal;text-indent:0;text-align:start;text-decoration:none;line-height:normal;letter-spacing:normal;word-spacing:normal;text-transform:none;direction:ltr;block-progression:tb;writing-mode:lr-tb;text-anchor:start;baseline-shift:baseline;color:#000000;fill:#d1d4d6;fill-opacity:0.74329164;fill-rule:nonzero;stroke:none;stroke-width:2;marker:none;visibility:visible;display:inline;overflow:visible;enable-background:accumulate;font-family:Sans;-inkscape-font-specification:Sans"
       d="M 4 -0.1875 C 1.6946 -0.1875 -0.1875 1.6946 -0.1875 4 C -0.1875 6.3054 1.6946 8.1875 4 8.1875 C 4.1324 8.1875 4.1964 8.138 4.3125 8.125 L 5.90625 9.71875 L 5.8125 9.78125 C 5.1683 9.22835 4.4111 8.8125 3.5 8.8125 C 1.4708 8.8125 -0.1875 10.4708 -0.1875 12.5 C -0.1875 14.5292 1.4708 16.1875 3.5 16.1875 C 4.8888 16.1875 5.96295 15.3293 6.59375 14.1875 L 7 14.03125 C 7.9576 15.27935 9.3227 16.1875 11 16.1875 C 13.8577 16.1875 16.1875 13.8577 16.1875 11 C 16.1875 9.3227 15.27935 7.9576 14.03125 7 L 14.1875 6.59375 C 15.3293 5.96295 16.1875 4.8888 16.1875 3.5 C 16.1875 1.4708 14.5292 -0.1875 12.5 -0.1875 C 10.4708 -0.1875 8.8125 1.4708 8.8125 3.5 C 8.8125 4.4111 9.22835 5.1683 9.78125 5.8125 L 9.71875 5.90625 L 8.125 4.3125 C 8.139 4.1964 8.1875 4.1324 8.1875 4 C 8.1875 1.6946 6.3054 -0.1875 4 -0.1875 z M 4 1 C 5.6569 1 7 2.3431 7 4 C 7 4.2658 6.94 4.5046 6.875 4.75 L 9.4375 7.3125 C 9.7969 7.1605 10.18965 7.07205 10.59375 7.03125 L 11.15625 5.59375 C 10.45995 5.14985 10 4.3868 10 3.5 C 10 2.1193 11.1193 1 12.5 1 C 13.8807 1 15 2.1193 15 3.5 C 15 4.6515 14.21565 5.61605 13.15625 5.90625 L 12.59375 7.3125 C 14.01595 7.9256 15 9.3528 15 11 C 15 13.2091 13.2091 15 11 15 C 9.3528 15 7.9256 14.01595 7.3125 12.59375 L 5.90625 13.15625 C 5.61605 14.21565 4.6515 15 3.5 15 C 2.1193 15 1 13.8807 1 12.5 C 1 11.1193 2.1193 10 3.5 10 C 4.3868 10 5.14985 10.45995 5.59375 11.15625 L 7.03125 10.59375 C 7.07225 10.18965 7.1605 9.7969 7.3125 9.4375 L 4.75 6.875 C 4.5046 6.94 4.2658 7 4 7 C 2.3431 7 1 5.6569 1 4 C 1 2.3431 2.3431 1 4 1 z M 4 3 C 3.4477 3 3 3.4477 3 4 C 3 4.5523 3.4477 5 4 5 C 4.5523 5 5 4.5523 5 4 C 5 3.4477 4.5523 3 4 3 z M 11 9 C 9.8954 9 9 9.8954 9 11 C 9 12.1046 9.8954 13 11 13 C 12.1046 13 13 12.1046 13 11 C 13 9.8954 12.1046 9 11 9 z "
       transform="translate(-3364.4172,1859.5163)"
       id="path3764" />
  </g>
</svg>
